gtk-icons/Papirus-GTK/32x32/apps/copy-com.svg

<?xml version="1.0" encoding="UTF-8" standalone="no"?>
<!-- Created with Inkscape (http://www.inkscape.org/) -->

<svg
   xmlns:dc="http://purl.org/dc/elements/1.1/"
   xmlns:cc="http://creativecommons.org/ns#"
   xmlns:rdf="http://www.w3.org/1999/02/22-rdf-syntax-ns#"
   xmlns:svg="http://www.w3.org/2000/svg"
   xmlns="http://www.w3.org/2000/svg"
   xmlns:sodipodi="http://sodipodi.sourceforge.net/DTD/sodipodi-0.dtd"
   xmlns:inkscape="http://www.inkscape.org/namespaces/inkscape"
   id="svg2"
   version="1.1"
   inkscape:version="0.91 r"
   width="32"
   height="32"
   viewBox="0 0 32 32"
   sodipodi:docname="copy.svg">
  <metadata
     id="metadata8">
    <rdf:RDF>
      <cc:Work
         rdf:about="">
        <dc:format>image/svg+xml</dc:format>
        <dc:type
           rdf:resource="http://purl.org/dc/dcmitype/StillImage" />
        <dc:title></dc:title>
      </cc:Work>
    </rdf:RDF>
  </metadata>
  <defs
     id="defs6" />
  <sodipodi:namedview
     pagecolor="#ffffff"
     bordercolor="#666666"
     borderopacity="1"
     objecttolerance="10"
     gridtolerance="10"
     guidetolerance="10"
     inkscape:pageopacity="0"
     inkscape:pageshadow="2"
     inkscape:window-width="1535"
     inkscape:window-height="876"
     id="namedview4"
     showgrid="false"
     showguides="false"
     inkscape:zoom="1"
     inkscape:cx="13.96368"
     inkscape:cy="15.879144"
     inkscape:window-x="65"
     inkscape:window-y="24"
     inkscape:window-maximized="1"
     inkscape:current-layer="svg2" />
  <g
     id="g4138"
     transform="matrix(0.08005717,0,0,0.07862758,1.6845694,5.2729885)">
    <path
       style="fill:#1ba9cb"
       d="M 135.09634,276.32812 85.132045,110.99173 3.9400742,123.70992 66.395435,72.837184 103.86866,85.555367 153.83295,212.7372 l 106.17412,-63.59091 31.22769,6.35909 62.45536,120.82274 -187.3661,-19.07727 z M 235.02493,123.70992 316.21691,-3.4719171 278.74369,142.78719 Z"
       id="path4142"
       inkscape:connector-curvature="0"
       sodipodi:nodetypes="ccccccccccccccc" />
    <path
       style="fill:#e65902"
       d="m 160.07849,200.01902 -18.73661,-44.51364 49.96429,-31.79546 24.98215,0 31.22768,25.43637 z"
       id="path4140"
       inkscape:connector-curvature="0"
       sodipodi:nodetypes="cccccc" />
  </g>
  <g
     transform="matrix(0.11436739,0,0,0.11436739,3.5493841,-8.6029261)"
     id="g4155"
     style="fill:#5f5f5f;fill-opacity:1" />
  <g
     style="fill:#a9a9a9;fill-opacity:1"
     id="g4160"
     transform="matrix(0.11436739,0,0,0.11436739,3.5493841,-6.6029261)" />
  <g
     transform="matrix(0.08005717,0,0,0.07862758,1.6845694,5.2729885)"
     id="g4141"
     style="fill:#ffffff;fill-opacity:1">
    <path
       style="fill:#ffffff;fill-opacity:1;opacity:0.2"
       d="M 27 5 L 20.5 15 L 21.007812 15.21875 L 26.564453 6.6699219 L 27 5 z M 7 11 L 2 15 L 3.546875 14.761719 L 7 12 L 10 13 L 14 23 L 22.5 18 L 25 18.5 L 29.445312 26.945312 L 30 27 L 25 17.5 L 24.048828 17.310547 L 24 17.5 L 23.125 17.125 L 22.5 17 L 21.203125 17.763672 L 21.5 18 L 14.5 22 L 14.398438 21.765625 L 14 22 L 10 12 L 7 11 z M 17 15 L 13 17.5 L 13.337891 18.289062 L 17 16 L 19 16 L 20.771484 17.416016 L 21.5 17 L 19 15 L 17 15 z "
       transform="matrix(12.491074,0,0,12.718184,-21.04208,-67.062836)"
       id="path4143" />
  </g>
  <g
     style="fill:#000000;fill-opacity:1"
     id="g4148"
     transform="matrix(0.08005717,0,0,0.07862758,1.6845694,5.2729885)">
    <path
       style="fill:#000000;fill-opacity:1;opacity:0.3"
       d="M 27 5 L 26.564453 5.6699219 L 24 15.5 L 21.007812 14.21875 L 20.5 15 L 23.125 16.125 L 24.048828 16.310547 L 27 5 z M 8.5 13 L 3.546875 13.761719 L 2 15 L 8.5 14 L 12.5 27 L 15 25.5 L 30 27 L 29.445312 25.945312 L 15 24.5 L 12.5 26 L 8.5 13 z M 20.771484 16.416016 L 14.5 20 L 13.337891 17.289062 L 13 17.5 L 14.398438 20.765625 L 21.203125 16.763672 L 20.771484 16.416016 z "
       transform="matrix(12.491074,0,0,12.718184,-21.04208,-67.062836)"
       id="path4150" />
  </g>
  <g
     style="fill:#a5a5a5;fill-opacity:1"
     id="g4156"
     transform="matrix(0.08005717,0,0,0.07862758,1.6845694,6.2729877)" />
</svg>

<?xml version="1.0" encoding="UTF-8" standalone="no"?>
<!-- Created with Inkscape (http://www.inkscape.org/) -->
<svg id="svg2" xmlns:rdf="http://www.w3.org/1999/02/22-rdf-syntax-ns#" xmlns="http://www.w3.org/2000/svg" height="32" viewBox="0 0 32 32" width="32" version="1.1" xmlns:cc="http://creativecommons.org/ns#" xmlns:dc="http://purl.org/dc/elements/1.1/">
 <metadata id="metadata8">
  <rdf:RDF>
   <cc:Work rdf:about="">
    <dc:format>image/svg+xml</dc:format>
    <dc:type rdf:resource="http://purl.org/dc/dcmitype/StillImage"/>
    <dc:title/>
   </cc:Work>
  </rdf:RDF>
 </metadata>
 <g id="g4138" transform="matrix(.080057 0 0 .078628 1.6846 5.273)">
  <path id="path4142" fill="#1ba9cb" d="m135.1 276.33-49.968-165.34-81.192 12.72 62.455-50.873 37.475 12.718 49.96 127.18l106.17-63.591 31.228 6.3591 62.455 120.82-187.37-19.077zm99.92-152.62 81.2-127.18-37.48 146.26z"/>
  <path id="path4140" fill="#e65902" d="m160.08 200.02-18.737-44.514 49.964-31.795h24.982l31.228 25.436z"/>
 </g>
 <g id="g4141" fill="#fff" transform="matrix(.080057 0 0 .078628 1.6846 5.273)">
  <path id="path4143" opacity=".2" d="m27 5l-6.5 10 0.508 0.219 5.556-8.5491 0.436-1.6699zm-20 6l-5 4 1.5469-0.238 3.4531-2.762 3 1 4 10 8.5-5 2.5 0.5 4.445 8.445 0.555 0.055-5-9.5-0.951-0.189-0.049 0.189-0.875-0.375-0.625-0.125-1.297 0.764 0.297 0.236-7 4-0.102-0.234-0.398 0.234-4-10-3-1zm10 4l-4 2.5 0.338 0.789 3.662-2.289h2l1.771 1.416 0.729-0.416-2.5-2h-2z" transform="matrix(12.491 0 0 12.718 -21.042 -67.063)" fill="#fff"/>
 </g>
 <g id="g4148" transform="matrix(.080057 0 0 .078628 1.6846 5.273)">
  <path id="path4150" opacity=".3" d="m27 5l-0.436 0.6699-2.564 9.8301-2.992-1.281-0.508 0.781 2.625 1.125 0.924 0.186 2.951-11.311zm-18.5 8l-4.9531 0.762-1.5469 1.238 6.5-1 4 13 2.5-1.5 15 1.5-0.555-1.055-14.445-1.445-2.5 1.5-4-13zm12.271 3.416l-6.271 3.584-1.162-2.711-0.338 0.211 1.398 3.266 6.805-4.002-0.432-0.348z" transform="matrix(12.491 0 0 12.718 -21.042 -67.063)"/>
 </g>
</svg>
